assets/images/svg/github-icon.svg

<?xml version="1.0" encoding="UTF-8" standalone="no" ?>
<svg width="256px" height="249px" viewBox="0 0 256 249" version="1.1" xmlns="http://www.w3.org/2000/svg" xmlns:xlink="http://www.w3.org/1999/xlink" preserveAspectRatio="xMidYMid">
    <g fill="#161614">
        <g>
            <g>
                <path d="M127.505325,0 C57.0953085,0 0,57.0847512 0,127.505325 C0,183.840517 36.5341565,231.634955 87.1959231,248.494762 C93.5682331,249.675053 95.9077031,245.728782 95.9077031,242.361044 C95.9077031,239.320577 95.7894626,229.276482 95.7345652,218.622183 C60.2624607,226.335253 52.7774244,203.578209 52.7774244,203.578209 C46.9773127,188.840395 38.6202541,184.921571 38.6202541,184.921571 C27.0517027,177.007914 39.4922764,177.170494 39.4922764,177.170494 C52.2960173,178.069965 59.0378285,190.309953 59.0378285,190.309953 C70.4100164,209.802719 88.8660679,204.1673 96.1420723,200.909355 C97.28647,192.668426 100.590866,187.043563 104.237313,183.859519 C75.9166384,180.635358 46.1454077,169.702349 46.1454077,120.845859 C46.1454077,106.925169 51.1262821,95.5508706 59.282755,86.6216127 C57.9588852,83.4101203 53.5945496,70.4416878 60.5179443,52.8787733 C60.5179443,52.8787733 71.2250303,49.4519144 95.5909876,65.9485544 C105.76177,63.1234548 116.669441,61.706682 127.505325,61.6581191 C138.341208,61.706682 149.257326,63.1234548 159.44711,65.9485544 C183.783508,49.4519144 194.475813,52.8787733 194.475813,52.8787733 C201.4161,70.4416878 197.049653,83.4101203 195.725783,86.6216127 C203.901259,95.5508706 208.84835,106.925169 208.84835,120.845859 C208.84835,169.818478 179.020111,180.601576 150.627647,183.75817 C155.201015,187.715 159.276084,195.474522 159.276084,207.370346 C159.276084,224.43074 159.128284,238.1614 159.128284,242.361044 C159.128284,245.75412 161.423413,249.729951 167.886515,248.47787 C218.520833,231.59906 255.008538,183.821514 255.008538,127.505325 C255.008538,57.0847512 197.921676,0 127.505325,0"></path>
                <path d="M47.7548904,181.634027 C47.4740694,182.267457 46.4774721,182.457486 45.5695553,182.022531 C44.6447467,181.606578 44.125334,180.743001 44.4251577,180.10746 C44.6996441,179.455026 45.6983528,179.273443 46.6210497,179.710509 C47.5479698,180.126462 48.0758284,180.998485 47.7548904,181.634027"></path>
                <path d="M54.0267356,187.230311 C53.4186425,187.794064 52.2299047,187.532246 51.4233365,186.641221 C50.5893197,185.752307 50.4330737,184.563569 51.0496125,183.99137 C51.6767086,183.427616 52.8295522,183.691546 53.6656804,184.58046 C54.4996968,185.479931 54.6622774,186.660223 54.0267356,187.230311"></path>
                <path d="M58.3294589,194.390565 C57.5482282,194.933204 56.2708102,194.424348 55.4811335,193.290508 C54.6999025,192.156667 54.6999025,190.796903 55.4980251,190.252153 C56.2898128,189.707403 57.5482282,190.197256 58.3484618,191.322651 C59.1275815,192.475494 59.1275815,193.835257 58.3294589,194.390565"></path>
                <path d="M65.6062848,202.683151 C64.9074,203.453826 63.4188386,203.246905 62.329338,202.195411 C61.2145006,201.167141 60.9041197,199.70814 61.6051161,198.937466 C62.3124465,198.164681 63.8094538,198.382159 64.9074,199.425208 C66.0137919,200.451366 66.3516214,201.920924 65.6062848,202.683151"></path>
                <path d="M75.0108761,205.482635 C74.7026069,206.481344 73.2689426,206.935302 71.824721,206.510904 C70.3826111,206.073837 69.4387998,204.904103 69.7301778,203.894837 C70.0300014,202.889794 71.4699999,202.416832 72.9247786,202.87079 C74.3647771,203.305746 75.3107001,204.467035 75.0108761,205.482635"></path>
                <path d="M85.7136959,206.670103 C85.74959,207.721597 84.5249578,208.593619 83.0089478,208.612623 C81.4844919,208.646406 80.251414,207.795498 80.2345225,206.760895 C80.2345225,205.698843 81.4317059,204.835266 82.9561618,204.809929 C84.4721721,204.780369 85.7136959,205.624942 85.7136959,206.670103"></path>
                <path d="M96.2280168,206.267066 C96.4096003,207.293224 95.3559942,208.346829 93.8505412,208.62765 C92.3704255,208.897913 91.0001042,208.264483 90.8121865,207.246772 C90.6284919,206.195277 91.7011007,205.141671 93.179105,204.869297 C94.6866694,204.607479 96.0358763,205.224017 96.2280168,206.267066"></path>
            </g>
        </g>
    </g>
</svg>

<svg width="256" height="249" viewBox="0 0 256 249" xmlns="http://www.w3.org/2000/svg" preserveAspectRatio="xMidYMid"><g fill="#161614"><path d="M127.505 0C57.095 0 0 57.085 0 127.505c0 56.336 36.534 104.13 87.196 120.99 6.372 1.18 8.712-2.766 8.712-6.134 0-3.04-.12-13.084-.173-23.738-35.473 7.713-42.958-15.044-42.958-15.044-5.8-14.738-14.157-18.656-14.157-18.656-11.568-7.914.872-7.752.872-7.752 12.804.9 19.546 13.14 19.546 13.14 11.372 19.493 29.828 13.857 37.104 10.6 1.144-8.242 4.45-13.866 8.095-17.05-28.32-3.225-58.092-14.158-58.092-63.014 0-13.92 4.98-25.295 13.138-34.224-1.324-3.212-5.688-16.18 1.235-33.743 0 0 10.707-3.428 35.073 13.07 10.172-2.827 21.08-4.243 31.915-4.292 10.836.05 21.752 1.465 31.942 4.29 24.337-16.496 35.03-13.07 35.03-13.07 6.94 17.564 2.573 30.532 1.25 33.744 8.174 8.93 13.12 20.303 13.12 34.224 0 48.972-29.827 59.756-58.22 62.912 4.574 3.957 8.65 11.717 8.65 23.612 0 17.06-.15 30.79-.15 34.99 0 3.394 2.296 7.37 8.76 6.118 50.634-16.88 87.122-64.656 87.122-120.973C255.01 57.085 197.92 0 127.504 0"/><path d="M47.755 181.634c-.28.633-1.278.823-2.185.39-.925-.417-1.445-1.28-1.145-1.917.275-.652 1.273-.834 2.196-.396.928.416 1.456 1.288 1.135 1.924M54.027 187.23c-.608.564-1.797.302-2.604-.59-.834-.888-.99-2.076-.373-2.65.627-.562 1.78-.298 2.616.59.834.9.996 2.08.36 2.65M58.33 194.39c-.782.543-2.06.034-2.85-1.1-.78-1.133-.78-2.493.018-3.038.792-.545 2.05-.055 2.85 1.07.78 1.153.78 2.513-.02 3.07M65.606 202.683c-.7.77-2.187.564-3.277-.488-1.115-1.028-1.426-2.487-.725-3.258.707-.772 2.204-.555 3.302.488 1.107 1.026 1.445 2.496.7 3.258M75.01 205.483c-.307.998-1.74 1.452-3.185 1.028-1.442-.436-2.386-1.606-2.095-2.615.3-1.005 1.74-1.478 3.195-1.024 1.44.436 2.386 1.597 2.086 2.613M85.714 206.67c.036 1.052-1.19 1.924-2.705 1.943-1.526.033-2.76-.818-2.775-1.852 0-1.06 1.197-1.925 2.72-1.95 1.517-.03 2.76.815 2.76 1.86M96.228 206.267c.182 1.026-.872 2.08-2.377 2.36-1.48.27-2.85-.363-3.038-1.38-.184-1.052.89-2.105 2.367-2.378 1.507-.263 2.856.354 3.048 1.397"/></g></svg>
